!!!OTL: UNSRE MUTTER HAT DIE GAENSE
!!!ARE: Europa, Mitteleuropa, Deutschland, Berlin
!!!SCT: E1724
!!!YEM: Copyright 1995, estate of Helmut Schaffrath.
**kern
*ICvox
*Ivox
*M3/8
*k[b-]
*F:
=1
{16f
16f
16f
16f
16f
16a
=2
16cc
16cc
16cc
16a
8f}
=3
{16f
16f
16f
16f
16f
16a
=4
16cc
16cc
16cc
16a
8f}
=5
{8cc
8b-
8g
=6
4f
8r}
=7
{4cc
8a
=8
4cc
8a}
=9
{8b-
8g
8g
=10
16a
16g
16a
16b-
8cc}
=11
{4cc
8a
=12
4cc
8a}
=13
{16cc
16b-
8g
8g
=14
4f
8r}
=15
{16f
16f
16f
16f
16f
16a
=16
16cc
16cc
16cc
16a
8f}
=17
{16f
16f
16f
16f
16f
16a
=18
16cc
16cc
16cc
16a
8f}
==
!!!AGN: Scherz - Lied
!!!ONB: ESAC (Essen Associative Code) Database: ERK3
!!!AMT: simple triple
!!!AIN: vox
!!!EED: Helmut Schaffrath
!!!EEV: 1.0
*-
